X:1
T:Tebe poem
T:Tebe poem
T:Op. 9, #11
T:P. Tsjesnokov
C:P. Tsjesnokov
%%score [ 1 2 3 4 ]
L:1/8
Q:1/4=48
M:3/4
K:G
V:1 treble nm="S1"
V:2 treble nm="S2"
V:3 treble nm="A1"
V:4 treble nm="A2"
V:1
"^Sakte"!p! (Bc) | d4!<(! e2!<)! |!>(! d4!>)!!<(! (AB)!<)! |!>(! c3!>)! e d c | B4 z2 | %5
w: Te- *|be po-|em, Te- *|be bla- go- slo-|vim,|
 z2!mf! (e2 d2) | c3 B A c |!<(! (B2 e4)!<)! |!>(! d4 c2!>)! | !fermata!B3 z z2 | z2 z2!mf! B2 | %11
w: Te- *|be bla- go- da-|rim, _|Gos- po-|di.|I|
 (g2 f2) e2 |!>(! (e2 d2) c2!>)! | B3!<(! B B!<)! c | (d2 g2) d2 |!>(! (e2 d2) c2!>)! | B3 B B2 | %17
w: mo- * lim|Ti _ sja,|Bo- zje nasj, i|mo- * lim|Ti _ sja|Bo- zje nasj,|
 A4 A2 | B4 z2 | (d2 c2) A2 | (B2 d2) d2 | !fermata!d4 |] %22
w: Bo- zje|nasj,|Bo- * zje,|Bo- * zje|nasj.|
V:2
!p! (GA) | B4!<(! B2!<)! |!>(! c4!>)!!<(! (FG)!<)! |!>(! A3!>)! c B A | G4 z2 | z2!mf! (^G2 B2) | %6
w: Te- *|be po-|em, Te- *|be bla- go- slo-|vim,|Te- *|
 A3 ^G A A |!<(! G6!<)! |!>(! B4 A2!>)! | !fermata!G3 z B2 | B6- |!<(! B4 B2!<)! | %12
w: be bla- go- da-|rim,|Gos- po-|di. I|mo-|* lim|
!>(! (c2 B2) A2!>)! | G3!<(! G G!<)! A | B4 B2 |!>(! (c2 B2) A2!>)! | G3 G G2 | G4 F2 | F4 z2 | %19
w: Ti _ sja|Bo- zje nasj, i|mo- lim|Ti _ sja|Bo- zje nasj,|Bo- zje|nasj,|
 A4 A2 | (G2 B2) c2 | !fermata!B4 |] %22
w: Bo- zje,|Bo- * zje|nasj.|
V:3
!p! D2 | (G2 D2)!<(! G2!<)! |!>(! F4!>)!!<(! D2!<)! |!>(! D3!>)! F F F | G4 z2 | z2!mf! (B2 E2) | %6
w: Te-|be _ po-|em, Te-|be bla- go- slo-|vim,|Te- *|
 E3 E E E |!<(! (D2 ^C4)!<)! |!>(! (D2 E2) F2!>)! | !fermata!G3 z G2 | G6- |!<(! G4 G2!<)! | %12
w: be bla- go- da-|rim, _|Gos- * po-|di. I|mo-|* lim|
!>(! A4 F2!>)! | G3!<(! G G!<)! G | G4 G2 |!>(! F4 F2!>)! | G3 D D2 | E4 E2 | ^D4 z2 | E4 E2 | %20
w: Ti sja|Bo- zje nasj, i|mo- lim|Ti sja|Bo- zje nasj,|Bo- zje|nasj,|Bo- zje,|
 (D2 G2) F2 | !fermata!G4 |] %22
w: Bo- * zje|nasj.|
V:4
!p! G,2 | G,4!<(! G,2!<)! |!>(! (A,2 D2)!>)!!<(! D2!<)! |!>(! D3!>)! D D D |!<(! G4 =F2!<)! | %5
w: Te-|be po-|em, _ Te-|be bla- go- slo-|vim, Te-|
!mf! (E6 | A,3) B, C A, |!<(! (D2 A,4)!<)! |!>(! D4 D2!>)! | !fermata!G,3 z E2 | E6- | %11
w: be|_ bla- go- da-|rim, _|Gos- po-|di. I|mo-|
!<(! E4 E2!<)! |!>(! E4 E2!>)! | E3!<(! E E!<)! E | D4 D2 |!>(! D4 D2!>)! | G,3 G, G,2 | C4 C2 | %18
w: * lim|Ti sja|Bo- zje nasj, i|mo- lim|Ti sja|Bo- zje nasj,|Bo- zje|
 B,4 z2 | A,4 C2 | D4 D2 | !fermata![G,D]4 |] %22
w: nasj,|Bo- zje,|Bo- zje|nasj.|

